app/images/dist/gift-icon.svg

<svg width="37" height="38" viewBox="0 0 37 38" fill="none" xmlns="http://www.w3.org/2000/svg">
<path d="M18.4997 8.99992V35.6666M31.833 17.3333V30.3333C31.833 32.2001 31.833 33.1336 31.4697 33.8466C31.1502 34.4738 30.6402 34.9838 30.013 35.3033C29.3 35.6666 28.3665 35.6666 26.4997 35.6666H10.4997C8.63282 35.6666 7.69941 35.6666 6.98637 35.3033C6.35916 34.9838 5.84922 34.4738 5.52966 33.8466C5.16634 33.1336 5.16634 32.2001 5.16634 30.3333V17.3333M18.4997 8.99992H12.6068C11.7385 8.99992 10.9058 8.64873 10.2919 8.0236C9.67792 7.39848 9.33301 6.55064 9.33301 5.66659C9.33301 4.78254 9.67792 3.93469 10.2919 3.30957C10.9058 2.68444 11.7385 2.33325 12.6068 2.33325C17.1902 2.33325 18.4997 8.99992 18.4997 8.99992ZM18.4997 8.99992H24.3925C25.2608 8.99992 26.0935 8.64873 26.7075 8.0236C27.3213 7.39848 27.6663 6.55064 27.6663 5.66659C27.6663 4.78254 27.3213 3.93469 26.7075 3.30957C26.0935 2.68444 25.2608 2.33325 24.3925 2.33325C19.8092 2.33325 18.4997 8.99992 18.4997 8.99992ZM1.83301 11.6666V14.6666C1.83301 15.6 1.83301 16.0668 2.01466 16.4233C2.17446 16.7369 2.42942 16.9918 2.74302 17.1516C3.09954 17.3333 3.56626 17.3333 4.49967 17.3333H32.4997C33.4332 17.3333 33.8998 17.3333 34.2563 17.1516C34.57 16.9918 34.8248 16.7369 34.9847 16.4233C35.1663 16.0668 35.1663 15.6 35.1663 14.6666V11.6666C35.1663 10.7332 35.1663 10.2665 34.9847 9.90994C34.8248 9.59634 34.57 9.34137 34.2563 9.18157C33.8998 8.99992 33.4332 8.99992 32.4997 8.99992H4.49967C3.56626 8.99992 3.09954 8.99992 2.74302 9.18157C2.42942 9.34137 2.17446 9.59634 2.01466 9.90994C1.83301 10.2665 1.83301 10.7332 1.83301 11.6666Z" stroke="white" stroke-width="3" stroke-linecap="round" stroke-linejoin="round"/>
</svg>

<svg width="37" height="38" fill="none" xmlns="http://www.w3.org/2000/svg"><path d="M18.5 9v26.667m13.333-18.334v13c0 1.867 0 2.8-.363 3.514a3.333 3.333 0 0 1-1.457 1.456c-.713.364-1.647.364-3.513.364h-16c-1.867 0-2.8 0-3.514-.364a3.333 3.333 0 0 1-1.456-1.456c-.364-.713-.364-1.647-.364-3.514v-13M18.5 9h-5.893a3.244 3.244 0 0 1-2.315-.976 3.364 3.364 0 0 1-.959-2.357c0-.884.345-1.732.959-2.357a3.244 3.244 0 0 1 2.315-.977C17.19 2.333 18.5 9 18.5 9Zm0 0h5.892c.869 0 1.701-.351 2.316-.976a3.365 3.365 0 0 0 .958-2.357c0-.884-.345-1.732-.959-2.357a3.245 3.245 0 0 0-2.315-.977C19.81 2.333 18.5 9 18.5 9ZM1.833 11.667v3c0 .933 0 1.4.182 1.756.16.314.414.569.728.729.357.181.823.181 1.757.181h28c.933 0 1.4 0 1.756-.181.314-.16.569-.415.729-.729.181-.356.181-.823.181-1.756v-3c0-.934 0-1.4-.181-1.757a1.667 1.667 0 0 0-.729-.728C33.9 9 33.433 9 32.5 9h-28c-.934 0-1.4 0-1.757.182-.314.16-.569.414-.728.728-.182.357-.182.823-.182 1.757Z" stroke="#fff" stroke-width="3" stroke-linecap="round" stroke-linejoin="round"/></svg>
